; generated by SuperSlicer 2.3.57
; Smart compact temperature calibration tower by gaaZolee https://www.thingiverse.com/thing:2729076
; this gcode has already observed the temperature change per level and can be used directly

; 

; external perimeters extrusion width = 0.42mm
; perimeters extrusion width = 0.46mm
; infill extrusion width = 0.44mm
; solid infill extrusion width = 0.46mm
; top infill extrusion width = 0.44mm
; first layer extrusion width = 0.56mm


;TYPE:Custom
start gcode

G90 ; use absolute coordinates
M83 ; extruder relative mode
M140 S60 ; set final bed temp
M104 S150 ; set temporary nozzle temp to prevent oozing during homing and auto bed leveling
G4 S10 ; allow partial nozzle warmup
G28 ; home all axis
G1 Z50 F240
G1 X2 Y10 F3000
M104 S225 ; set final nozzle temp
M190 S60 ; wait for bed temp to stabilize
M109 S225 ; wait for nozzle temp to stabilize
G1 Z0.28 F240
G92 E0
G1 Y140 E10 F1500 ; prime the nozzle
G1 X2.3 F5000
G92 E0
G1 Y10 E10 F1200 ; prime the nozzle
G92 E0
M107
G21 ; set units to millimeters
G90 ; use absolute coordinates
M82 ; use absolute distances for extrusion
G92 E0
; Filament gcode
M107
;LAYER_CHANGE
;Z:0.12
;HEIGHT:0.12
;BEFORE_LAYER_CHANGE
;0.12


G1 E-5 F3600
G1 Z0.12 F2700
;AFTER_LAYER_CHANGE
;0.12
G92 E0
M204 P1500
G1 X88.131 Y94.054
G1 E5 F2400
;TYPE:Skirt
;WIDTH:0.48
G1 F1200
G1 X87.655 Y94.756 E5.01923
G1 X87.389 Y95.456 E5.03619
G1 X87.252 Y96.353 E5.05675
G1 X87.273 Y123.756 E5.67778
G1 X87.449 Y124.731 E5.70023
G1 X87.956 Y125.735 E5.72572
G1 X88.601 Y126.417 E5.74699
G1 X89.378 Y126.903 E5.76777
G1 X90.276 Y127.204 E5.78923
G1 X91.167 Y127.307 E5.80955
G1 X132.684 Y127.291 E6.75043
G1 X133.404 Y127.22 E6.76682
G1 X134.034 Y127.06 E6.78156
G1 X135.083 Y126.522 E6.80828
G1 X135.685 Y125.974 E6.82673
G1 X136.155 Y125.289 E6.84555
G1 X136.428 Y124.602 E6.86231
G1 X136.573 Y123.736 E6.8822
G1 X136.553 Y96.161 E7.50713
G1 X136.428 Y95.422 E7.52411
G1 X136.188 Y94.793 E7.53937
G1 X135.794 Y94.161 E7.55624
G1 X135.264 Y93.619 E7.57344
G1 X134.727 Y93.241 E7.58831
G1 X134.037 Y92.929 E7.60548
G1 X133.3 Y92.75 E7.62267
G1 X132.554 Y92.691 E7.63962
G1 X91.145 Y92.723 E8.57806
G1 X90.426 Y92.793 E8.59441
G1 X89.795 Y92.954 E8.60919
G1 X88.743 Y93.493 E8.63596
G1 X88.175 Y94.013 E8.65342
G92 E0
G1 E-3.5 F3600
;WIPE_START
G1 F2160
M204 P500
G1 X87.659 Y94.751 E-4.925
;WIPE_END
G1 E-5 F3600
M204 P1500
G1 X104.846 Y102.998 F2700
M204 P500
G1 X122.032 Y111.246
G1 E0 F2400
;TYPE:External perimeter
;WIDTH:0.564
G1 F1200
G1 X121.901 Y110.989 E0.00774
G1 X121.623 Y110.447 E0.02411
G1 X121.577 Y110.358 E0.02678
M204 P1500
G1 X121.494 Y110.246 F2700
M204 P500
G1 X121.41 Y110.134
;TYPE:Thin wall
;WIDTH:0.0231039
G1 F1200
G1 X121.327 Y110.247 E0.02692
;WIDTH:0.036
G1 X121.261 Y110.336 E0.02711
G1 X121.184 Y110.433 E0.02731
G1 X121.053 Y110.475 E0.02755
G1 X120.966 Y110.495 E0.0277
;WIDTH:0.0401978
G1 X120.879 Y110.516 E0.02786
G1 X120.67 Y110.541 E0.02826
G1 X120.461 Y110.567 E0.02866
G1 X120.352 Y110.565 E0.02887
;WIDTH:0.036
G1 X120.227 Y110.539 E0.02908
;WIDTH:0.0198
G1 X120.09 Y110.511 E0.0292
;WIDTH:0.022
G1 X120.227 Y110.539 E0.02934
;WIDTH:0.04
G1 X120.352 Y110.565 E0.02958
;WIDTH:0.0446642
G1 X120.461 Y110.567 E0.02981
G1 X120.67 Y110.541 E0.03025
G1 X120.879 Y110.516 E0.03069
G1 X120.966 Y110.495 E0.03088
;WIDTH:0.04
G1 X121.053 Y110.475 E0.03105
G1 X121.184 Y110.433 E0.0313
G1 X121.261 Y110.336 E0.03153
G1 X121.327 Y110.247 E0.03174
;WIDTH:0.025671
G1 X121.41 Y110.134 E0.0319
M204 P1500
G1 X121.494 Y110.246 F2700
M204 P500
G1 X121.577 Y110.358
;TYPE:External perimeter
;WIDTH:0.564
G1 F1200
G1 X121.692 Y110.304 E0.03531
G1 X121.894 Y110.113 E0.04279
G1 X122.03 Y109.94 E0.04869
G1 X122.035 Y109.927 E0.04906
M204 P1500
G1 X122.047 Y109.887 F2700
M204 P500
G1 X122.058 Y109.848
;TYPE:Thin wall
;WIDTH:0.0211009
G1 F1200
G1 X122.076 Y109.709 E0.04919
;WIDTH:0.0386019
G1 X122.086 Y109.625 E0.04935
G1 X122.095 Y109.516 E0.04955
G1 X122.105 Y109.379 E0.0498
G1 X122.106 Y109.341 E0.04986
G1 X122.1 Y109.111 E0.05028
G1 X122.1 Y108.996 E0.05049
;WIDTH:0.036
G1 X122.1 Y108.881 E0.05068
G1 X122.092 Y108.799 E0.05082
;WIDTH:0.0198
G1 X122.079 Y108.66 E0.05094
;WIDTH:0.022
G1 X122.092 Y108.799 E0.05108
;WIDTH:0.04
G1 X122.1 Y108.881 E0.05123
G1 X122.1 Y108.996 E0.05144
;WIDTH:0.042891
G1 X122.1 Y109.111 E0.05168
G1 X122.106 Y109.341 E0.05214
G1 X122.105 Y109.379 E0.05221
G1 X122.095 Y109.516 E0.05249
G1 X122.086 Y109.625 E0.05271
G1 X122.076 Y109.709 E0.05288
;WIDTH:0.0234455
G1 X122.058 Y109.848 E0.05303
M204 P1500
G1 X122.047 Y109.887 F2700
M204 P500
G1 X122.035 Y109.927
;TYPE:External perimeter
;WIDTH:0.564
G1 F1200
G1 X122.032 Y111.186 E0.08683
;WIPE_START
G1 X121.943 Y110.972 F2700
;WIPE_END
G92 E0
G1 E-3.5 F3600
;WIPE_START
G1 F2160
G1 X121.901 Y110.989 E-3.5723
G1 X121.623 Y110.447 E-4.53742
G1 X121.577 Y110.358 E-4.69473
;WIPE_END
G1 E-5 F3600
M204 P1500
G1 X126.456 Y116.642 F2700
M204 P500
G1 X131.335 Y122.926
G1 E0 F2400
;TYPE:Internal perimeter
G1 F1200
G1 X130.726 Y122.706 E0.01738
G1 X130.307 Y122.511 E0.0298
G1 X129.791 Y122.211 E0.04582
G1 X129.358 Y121.885 E0.06037
G1 X129.094 Y121.638 E0.07008
G1 X128.866 Y121.38 E0.07933
G1 X128.672 Y121.115 E0.08814
G1 X128.512 Y120.851 E0.09643
G1 X128.285 Y120.374 E0.11062
G1 X127.834 Y119.108 E0.14671
G1 X127.57 Y118.458 E0.16554
G1 X127.246 Y117.831 E0.1845
G1 X126.862 Y117.248 E0.20325
G1 X126.421 Y116.716 E0.2218
G1 X126.08 Y116.379 E0.23468
G1 X125.786 Y116.13 E0.24502
G1 X125.166 Y115.703 E0.26524
G1 X124.425 Y115.327 E0.28755
G1 X123.557 Y115.01 E0.31236
G1 X122.537 Y114.747 E0.34065
G1 X121.334 Y114.532 E0.37347
G1 X119.912 Y114.362 E0.41192
G1 X118.241 Y114.233 E0.45693
G1 X116.634 Y114.155 E0.50013
G1 X114.821 Y114.106 E0.54885
G1 X112.359 Y114.081 E0.61495
G1 X109.8 Y114.095 E0.68367
G1 X108.436 Y114.124 E0.72031
G1 X108.342 Y112.302 E0.7693
G1 X108.798 Y112.486 E0.78253
G1 X109.093 Y112.546 E0.7906
G1 X109.558 Y112.583 E0.80312
G1 X110.056 Y112.543 E0.81654
G1 X110.73 Y112.349 E0.83538
G1 X110.619 Y113.319 E0.86161
G1 X112.032 Y113.387 E0.89961
G1 X113.862 Y113.391 E0.94875
G1 X115.738 Y113.329 E0.99916
G1 X115.62 Y112.367 E1.02519
G1 X116.333 Y112.558 E1.045
G1 X117.022 Y112.574 E1.06352
G1 X117.565 Y112.494 E1.07826
G1 X118.087 Y112.318 E1.09304
G1 X118.351 Y112.162 E1.10127
G1 X118.401 Y112.108 E1.10326
G1 X118.662 Y111.978 E1.11109
G1 X119.086 Y112.337 E1.12603
G1 X119.716 Y112.542 E1.14382
G1 X120.28 Y112.582 E1.15901
G1 X120.823 Y112.535 E1.17364
G1 X121.418 Y112.37 E1.1902
G1 X121.567 Y112.267 E1.19508
G1 X122.727 Y112.426 E1.2265
G1 X123.614 Y112.47 E1.25036
G1 X123.749 Y112.519 E1.25421
G1 X124.287 Y112.588 E1.26877
G1 X124.734 Y112.539 E1.28085
G1 X125.055 Y112.447 E1.28981
G1 X125.454 Y112.252 E1.30175
G1 X125.825 Y111.955 E1.31451
G1 X126.106 Y111.613 E1.32639
G1 X126.272 Y111.34 E1.33498
G1 X126.396 Y111.039 E1.34371
G1 X126.49 Y110.731 E1.35235
G1 X126.568 Y110.194 E1.36693
G1 X127.79 Y111.367 E1.41241
G1 X128.147 Y111.757 E1.42661
G1 X128.462 Y112.138 E1.43989
G1 X128.731 Y112.506 E1.45213
G1 X128.955 Y112.859 E1.46335
G1 X129.136 Y113.197 E1.47364
G1 X129.277 Y113.52 E1.48311
G1 X129.382 Y113.831 E1.49192
G1 X129.454 Y114.134 E1.50027
G1 X129.498 Y114.433 E1.5084
G1 X129.517 Y114.734 E1.51651
G1 X129.513 Y115.038 E1.52467
G1 X129.478 Y115.465 E1.53616
G1 X129.288 Y116.685 E1.56933
G1 X129.211 Y117.403 E1.58873
G1 X129.225 Y118.067 E1.60656
G1 X129.351 Y118.756 E1.62537
G1 X129.471 Y119.139 E1.63614
G1 X129.691 Y119.663 E1.6514
G1 X129.881 Y120.027 E1.66244
G1 X130.198 Y120.551 E1.67888
G1 X130.795 Y121.39 E1.70653
G1 X131.816 Y122.691 E1.75094
G1 X131.616 Y122.998 E1.76077
G1 X131.393 Y122.941 E1.76696
G92 E0
G1 E-3.5 F3600
;WIPE_START
G1 F2160
G1 X130.726 Y122.706 E-4.6193
G1 X130.551 Y122.624 E-4.925
;WIPE_END
G1 E-5 F3600
M204 P1500
G1 X111.395 Y122.825 F2700
M204 P500
G1 X92.239 Y123.025
G1 E0 F2400
G1 F1200
G1 X92.019 Y122.714 E0.01022
G1 X93.042 Y121.408 E0.05477
G1 X93.639 Y120.569 E0.08242
G1 X93.956 Y120.045 E0.09887
G1 X94.149 Y119.674 E0.1101
G1 X94.425 Y118.985 E0.13004
G1 X94.526 Y118.611 E0.14044
G1 X94.591 Y118.256 E0.15012
G1 X94.625 Y117.903 E0.15964
G1 X94.626 Y117.413 E0.17281
G1 X94.55 Y116.702 E0.19202
G1 X94.358 Y115.481 E0.22519
G1 X94.323 Y115.054 E0.23669
G1 X94.319 Y114.756 E0.24471
G1 X94.35 Y114.344 E0.2558
G1 X94.401 Y114.05 E0.26383
G1 X94.483 Y113.745 E0.2723
G1 X94.599 Y113.43 E0.2813
G1 X94.752 Y113.102 E0.29102
G1 X94.942 Y112.767 E0.30136
G1 X95.373 Y112.148 E0.32163
G1 X95.682 Y111.773 E0.33467
G1 X96.038 Y111.384 E0.34885
G1 X97.465 Y110.011 E0.402
G1 X96.037 Y108.641 E0.45515
G1 X95.68 Y108.251 E0.46933
G1 X95.371 Y107.877 E0.48237
G1 X94.939 Y107.258 E0.50264
G1 X94.749 Y106.923 E0.51297
G1 X94.595 Y106.596 E0.52269
G1 X94.479 Y106.281 E0.53169
G1 X94.397 Y105.976 E0.54017
G1 X94.345 Y105.682 E0.54819
G1 X94.314 Y105.27 E0.55929
G1 X94.317 Y104.972 E0.5673
G1 X94.353 Y104.545 E0.5788
G1 X94.542 Y103.324 E0.61198
G1 X94.619 Y102.605 E0.63139
G1 X94.604 Y101.941 E0.64924
G1 X94.477 Y101.252 E0.66805
G1 X94.356 Y100.869 E0.67882
G1 X94.135 Y100.346 E0.69408
G1 X93.945 Y99.981 E0.70512
G1 X93.628 Y99.458 E0.72156
G1 X93.03 Y98.619 E0.74922
G1 X92.012 Y97.323 E0.79348
G1 X92.212 Y97.016 E0.80331
G1 X92.496 Y97.088 E0.81119
G1 X93.104 Y97.309 E0.82856
G1 X93.524 Y97.504 E0.84098
G1 X94.039 Y97.804 E0.85699
G1 X94.472 Y98.129 E0.87154
G1 X94.735 Y98.376 E0.88123
G1 X94.963 Y98.634 E0.89049
G1 X95.157 Y98.899 E0.89929
G1 X95.317 Y99.163 E0.90758
G1 X95.544 Y99.64 E0.92177
G1 X95.996 Y100.906 E0.95785
G1 X96.259 Y101.555 E0.97668
G1 X96.584 Y102.182 E0.99564
G1 X96.964 Y102.758 E1.01417
G1 X97.258 Y103.128 E1.02686
G1 X97.586 Y103.479 E1.03975
G1 X98.132 Y103.951 E1.05913
G1 X98.781 Y104.375 E1.07995
G1 X99.541 Y104.741 E1.10262
G1 X100.433 Y105.049 E1.12794
G1 X101.481 Y105.303 E1.1569
G1 X102.718 Y105.51 E1.19059
G1 X104.179 Y105.673 E1.23007
G1 X105.896 Y105.794 E1.27629
G1 X107.896 Y105.876 E1.33003
G1 X109.796 Y105.915 E1.38105
G1 X112.354 Y105.926 E1.44976
G1 X114.429 Y105.906 E1.50548
G1 X116.63 Y105.847 E1.5646
G1 X118.533 Y105.749 E1.61577
G1 X120.161 Y105.611 E1.65965
G1 X121.544 Y105.432 E1.69708
G1 X122.714 Y105.208 E1.72908
G1 X123.706 Y104.935 E1.75671
G1 X124.547 Y104.609 E1.78093
G1 X125.163 Y104.287 E1.79961
G1 X125.78 Y103.862 E1.81971
G1 X126.073 Y103.613 E1.83005
G1 X126.414 Y103.275 E1.84292
G1 X126.854 Y102.743 E1.86148
G1 X127.237 Y102.159 E1.88022
G1 X127.561 Y101.532 E1.89919
G1 X127.825 Y100.879 E1.9181
G1 X128.192 Y99.821 E1.94816
G1 X128.453 Y99.228 E1.96557
G1 X128.603 Y98.964 E1.97372
G1 X128.786 Y98.697 E1.98241
G1 X129.006 Y98.431 E1.99168
G1 X129.157 Y98.274 E1.99752
G1 X129.558 Y97.932 E2.01169
G1 X129.897 Y97.699 E2.02273
G1 X130.288 Y97.479 E2.03478
G1 X130.717 Y97.279 E2.04749
G1 X131.164 Y97.11 E2.06033
G1 X131.589 Y96.99 E2.07218
G1 X131.796 Y97.297 E2.08212
G1 X130.658 Y98.763 E2.13195
G1 X130.076 Y99.609 E2.15953
G1 X129.775 Y100.137 E2.17584
G1 X129.602 Y100.497 E2.18659
G1 X129.456 Y100.864 E2.19718
G1 X129.299 Y101.403 E2.21226
G1 X129.203 Y102.091 E2.23092
G1 X129.213 Y102.736 E2.24824
G1 X129.281 Y103.308 E2.26371
G1 X129.471 Y104.515 E2.29652
G1 X129.512 Y105.164 E2.31398
G1 X129.502 Y105.455 E2.3218
G1 X129.467 Y105.755 E2.3299
G1 X129.405 Y106.056 E2.33815
G1 X129.312 Y106.363 E2.34678
G1 X129.184 Y106.682 E2.35601
G1 X129.017 Y107.015 E2.36602
G1 X128.808 Y107.364 E2.37692
G1 X128.555 Y107.727 E2.38881
G1 X128.256 Y108.104 E2.40174
G1 X127.91 Y108.495 E2.41575
G1 X127.517 Y108.897 E2.43085
G1 X126.63 Y109.729 E2.46351
G1 X126.278 Y108.608 E2.49504
G1 X126.096 Y108.455 E2.50144
G1 X125.946 Y108.213 E2.50907
G1 X126.752 Y107.06 E2.54685
G1 X125.593 Y106.347 E2.5834
G1 X125.121 Y106.167 E2.59697
G1 X124.487 Y106.046 E2.61429
G1 X123.877 Y106.04 E2.63067
G1 X123.313 Y106.114 E2.64596
G1 X123.018 Y106.201 E2.65421
G1 X122.671 Y106.363 E2.66449
G1 X122.182 Y106.671 E2.68001
G1 X121.598 Y107.486 E2.70693
G1 X121.331 Y107.329 E2.71525
G1 X120.766 Y107.243 E2.73059
G1 X120.501 Y107.254 E2.73771
G1 X120.198 Y107.301 E2.74593
G1 X120.071 Y107.339 E2.74951
G1 X119.136 Y107.387 E2.77466
G1 X118.158 Y107.526 E2.80116
G1 X118.058 Y107.488 E2.80404
G1 X117.909 Y107.392 E2.80879
G1 X117.648 Y107.299 E2.81625
G1 X117.242 Y107.257 E2.82722
G1 X116.828 Y107.275 E2.83832
G1 X116.564 Y107.339 E2.84564
G1 X115.632 Y107.387 E2.8707
G1 X115.478 Y107.409 E2.87487
G1 X115.029 Y107.473 E2.88703
G1 X114.936 Y107.46 E2.88957
G1 X114.435 Y107.388 E2.90315
G1 X113.912 Y107.357 E2.91723
G1 X112.939 Y107.352 E2.94336
G1 X111.944 Y107.386 E2.97009
G1 X110.814 Y107.548 E3.00075
G1 X110.542 Y107.411 E3.00893
G1 X110.056 Y107.276 E3.02247
G1 X109.576 Y107.232 E3.03541
G1 X109.296 Y107.245 E3.04294
G1 X108.697 Y107.341 E3.05923
G1 X108.177 Y107.596 E3.07478
G1 X107.802 Y107.921 E3.08811
G1 X107.529 Y107.595 E3.09951
G1 X107.178 Y107.408 E3.11021
G1 X106.709 Y107.259 E3.12342
G1 X106.337 Y107.27 E3.13342
G1 X105.992 Y107.289 E3.1427
G1 X105.596 Y107.41 E3.15382
G1 X105.523 Y107.494 E3.1568
G1 X105.14 Y107.626 E3.16768
G1 X105.006 Y107.514 E3.17238
G1 X104.728 Y107.386 E3.18061
G1 X104.231 Y107.26 E3.19437
G1 X103.869 Y107.234 E3.20411
G1 X103.586 Y107.247 E3.21171
G1 X103.174 Y107.306 E3.22288
G1 X102.514 Y107.54 E3.24169
G1 X102.318 Y107.703 E3.24853
G1 X102.033 Y107.858 E3.25725
G1 X101.687 Y107.545 E3.2698
G1 X101.161 Y107.331 E3.28505
G1 X100.923 Y107.273 E3.29162
G1 X100.443 Y107.231 E3.30455
G1 X100.15 Y107.244 E3.31245
G1 X99.653 Y107.321 E3.32595
G1 X99.166 Y107.478 E3.33968
G1 X98.633 Y107.757 E3.35585
G1 X98.058 Y108.456 E3.38015
G1 X98.358 Y109.019 E3.39727
G1 X98.125 Y109.718 E3.41708
G1 X98.102 Y110.354 E3.43415
G1 X98.153 Y110.763 E3.44523
G1 X98.315 Y111.259 E3.45925
G1 X98.675 Y111.885 E3.47864
G1 X99.233 Y112.284 E3.49705
G1 X99.61 Y112.457 E3.5082
G1 X99.998 Y112.545 E3.51889
G1 X100.542 Y112.584 E3.53353
G1 X101.013 Y112.541 E3.54623
G1 X101.383 Y112.447 E3.55647
G1 X101.845 Y112.219 E3.57031
G1 X102.056 Y112.05 E3.57756
G1 X102.221 Y111.861 E3.58431
G1 X102.631 Y112.228 E3.59909
G1 X103.111 Y112.466 E3.61348
G1 X103.424 Y112.539 E3.6221
G1 X103.969 Y112.584 E3.63678
G1 X104.444 Y112.541 E3.6496
G1 X104.815 Y112.447 E3.65987
G1 X105.253 Y112.23 E3.67299
G1 X105.192 Y113.627 E3.71053
G1 X108.089 Y113.626 E3.78833
G1 X108.1 Y114.127 E3.80178
G1 X105.901 Y114.219 E3.86088
G1 X104.184 Y114.343 E3.9071
G1 X102.723 Y114.507 E3.94658
G1 X101.486 Y114.715 E3.98027
G1 X100.438 Y114.971 E4.00923
G1 X99.547 Y115.279 E4.03455
G1 X98.787 Y115.646 E4.05722
G1 X98.138 Y116.071 E4.07804
G1 X97.593 Y116.544 E4.09742
G1 X97.266 Y116.895 E4.11031
G1 X96.972 Y117.265 E4.123
G1 X96.593 Y117.841 E4.14153
G1 X96.268 Y118.469 E4.16049
G1 X96.006 Y119.119 E4.17932
G1 X95.556 Y120.385 E4.2154
G1 X95.328 Y120.862 E4.22959
G1 X95.169 Y121.126 E4.23788
G1 X94.976 Y121.391 E4.24668
G1 X94.748 Y121.65 E4.25594
G1 X94.485 Y121.897 E4.26564
G1 X94.052 Y122.223 E4.28018
G1 X93.542 Y122.521 E4.29605
G1 X92.964 Y122.781 E4.31306
G1 X92.296 Y123.006 E4.33199
G92 E0
G1 E-3.5 F3600
;WIPE_START
G1 F2160
G1 X92.019 Y122.714 E-4.13663
G1 X92.326 Y122.322 E-4.925
;WIPE_END
G1 E-5 F3600
M204 P1500
G1 X100.085 Y117.705 F2700
M204 P500
G1 X107.843 Y113.088
G1 E0 F2400
;TYPE:External perimeter
G1 F1200
G1 X107.799 Y112.241 E0.02279
G1 X107.734 Y111.805 E0.03461
G1 X107.734 Y110.843 E0.06045
G1 X107.881 Y111.125 E0.069
G1 X108.116 Y111.44 E0.07955
G1 X108.343 Y111.6 E0.087
G1 X108.555 Y111.808 E0.09497
G1 X108.954 Y111.968 E0.10651
G1 X109.168 Y112.012 E0.11238
G1 X109.558 Y112.043 E0.12288
G1 X109.959 Y112.011 E0.13369
G1 X110.348 Y111.899 E0.14455
G1 X110.569 Y111.786 E0.15121
G1 X110.705 Y111.644 E0.15649
G1 X111.002 Y111.439 E0.1662
G1 X111.329 Y110.969 E0.18157
G1 X111.46 Y110.611 E0.1918
G1 X111.509 Y110.246 E0.20171
G1 X111.52 Y109.745 E0.21515
G1 X111.505 Y109.561 E0.22009
G1 X112.804 Y109.561 E0.25497
G1 X111.324 Y111.466 E0.31974
G1 X111.312 Y111.999 E0.33406
G1 X111.219 Y112.809 E0.35594
G1 X112.046 Y112.849 E0.37817
G1 X113.854 Y112.853 E0.42672
